X:1
T:Bel pastor dal cui
T:Bel pastor dal cui
T:Marco da Gagliano
T:Dialogo di Ninfa e Pastore
T:Source : Musische di Piero Benedetti---Fiorenza---Heredes di C.Marescotti---1611. Editor : André Vierendeels (24/05/15).
C:Piero Benedetti
%%score [ 1 2 ] 3
L:1/8
Q:1/4=120
M:4/4
K:C
V:1 treble nm="Soprano" snm="S"
V:2 treble-8 nm="Tenor" snm="T"
V:3 bass nm="BC" snm="BC"
V:1
 B2 c2 d4- | d2 e2 c3 B | A4 A4 | B2 c2 d4- | d2 B2 A3 G | ^F4 F4 | z2 AG B4- | %7
w: Bel pa- stor|_ dal cui bel|guar- do|spi- ra fo-|* c'ond'- io tut-|to'ar- do,|m'a- mi tu|
 B2 c2 d/c/ c2 c/B/ | c4 c4 | z8 | z8 | e2 d2 ^c4 |[M:2/4] A4 | z4 |[M:4/4] z8 | z2 dc B4 | z8 | %17
w: _ co- mio _ _ _ de-|si- o?|||dim- mi quan-|to,|||co- me che?||
 z8 | z8 | G2 A2 B<A B<c | d2 e2 c3 B | A4 A4 | B2 c2 d4- | d2 B2 A3 G | ^F4 F4 | z2 AG B4- | %26
w: ||Que- sti vez- * * *|zi è que- sto|di- re,|non fan pa-|* go'il mio de-|si- re,|se tu m'a-|
 B2 G2 A2 B2 | c4 c4 | c2 d2 e4- | e2 d2 c3 B | A4 A4 | z2 dc B4 | z8 | z8 | z8 | G2 A2 B<A B<c | %36
w: * mi'O mio bel|fo- co,|dim- mi'an- cor,|_ ma fuor di|gio- co,|co- me che?||||V'e piu lie- * * *|
 d2 e2 c2 B2 | A4 A4 | B2 c2 d4- | d2 B2 A3 G | G4 G4 | z8 | z8 | z8 | z8 | z8 | z8 | z8 | z8 | %49
w: * to'u- di- to'ha-|vre- i:|"t'a- mo'al par|_ de- gl'oc- chi|mie- i",|||||||||
 z8 |[M:2/4] z4 | z2 dc | B4 | z4 |[M:4/4] z8 | z8 | B2 c2 d4- | d2 e4 cB | A4 A4 | B2 c2 d4- | %60
w: ||Co- me|che?||||Fa' sen- tir-|* mi'al- tre pa-|ro- le|se pur voi|
 d2 B2 A3 G | ^F4 F4 | z2 AG B4- | B2 G3 A B2 | c4 c4 | z8 | z8 | z8 | z8 | z8 | z8 | z8 | z8 | %73
w: _ ch'io mi con-|so- le.|M'a- mi tu?|_ Co- me la|vi- ta?|||||||||
 z8 | z8 | z8 | z2 dc B4 | z8 | z8 | z8 | B2 c2 d4- | d2 e2 c3 B | A8 | B2 c2 d4- | d2 B2 A3 G | %85
w: |||Co- me che?||||non mi dir|_ piu: "co- me|te",|dim- mi'io- t'a-|* mo co- me|
 G8 | z8 | z8 |[M:2/4] z4 | z2 e2- |[M:4/4] e2 A2 ^G4 | ^G4 z2 ^cc | d4 d4 | z2 dc B4 | z8 | z8 | %96
w: te,||||Deh,|_ se m'a-|mi dim- mi'es-|pres- so,|co- me che?|||
 z8 |] %97
w: |
V:2
 z8 | z8 | z8 | z8 | z8 | z8 | z8 | z8 | z8 | z2 e4 A2 | ^G4 G4 | z8 |[M:2/4] z4 | z2 AE | %14
w: |||||||||Si cor|mi- o,|||tan- to,|
[M:4/4] ^F4 F4 | z8 | z2 GG c2 FF | GAc_B A4 | G8 | z8 | z8 | z8 | z8 | z8 | z8 | z8 | z8 | z8 | %28
w: tan- to,||Co- me te, Pa- sto-|rel- la tut- ta bel-|la.||||||||||
 z8 | z8 | z8 | z8 | z2 GG c2 FF | GAc_B A4 | G8 | z8 | z8 | z8 | z8 | z8 | z8 | z2 G4 G2 | %42
w: ||||Co- me te, Pa- sto-|rel- la tut- ta bel-|la,-|||||||co- me|
 ^G3 G G2 A2 | B4 B2 E^F |"^#" ^G2 B2 F3 E | E4 E2 AB | ^c2 d2 e/d/ d2- d/c/ | d4 d2 cd | %48
w: rei del mio cor-|do- glio que- sti|lu- mi'a- mar non|vo- glio, di mi-|rar non sa- * zi'an- * *|co- ra, la bel-|
 e4- e3 c | B3 A A4 |[M:2/4] A4 | z4 | z4 | z2 GG |[M:4/4] c2 FF GAc_B | A4 G4 | z8 | z8 | z8 | %59
w: ta _ che|si m'ac- co-|ra.|||Co- me|te, Pa- sto- rel- la tut- ta|bel- la.||||
 z8 | z8 | z8 | z8 | z8 | z8 | z2 e4 ^G2 | ^G3 G G2 A2 | B4 B2 cB | cA A>^G A4 | A2 E^F ^GABc | %70
w: ||||||No, chi'af-|flit- ta'e sbi- got-|ti- ta do- do'e|sde- gno'e non d'a- mo-|, fat- t'al- ber- go di do-|
 d4 ^c2 AB | ^c2 d2 e/d/ d2 d/c/ | d4 d2 cd | e4- e3 c | c3 B B4 | A8 | z8 | z2 GG c2 FF | %78
w: lo- re, per due|lu- ci, an- * zi _ _|stel- le trop- po|cru- * de,|trop- po bel-|la.||Co- me te, Pa- sto-|
 GAc_B A4 | G8 | z8 | z8 | z8 | z8 | z8 | z8 | d2 B2 d2 e2- | e2 c>B B4 |[M:2/4] B4 | z4 | %90
w: rel- la tut- ta bel-|la.|||||||No, ch'io stes- s'o|_ dio me stes-|so.||
[M:4/4] z8 | z8 | z8 | z8 | z2 GG c2 FF | GAc_B A4 | G8 |] %97
w: ||||Co- me te Pa- sto-|rel- la tut- ta bel-|la.|
V:3
 G,8 | G,4 E,4 | F,4 F,4 | E,2 D,C, B,,4 | C,4 ^C,4 | D,8 | D,4 G,,4 | G,2 E,2 F,2 G,2 | C,8 | %9
 C,4 D,4 | E,8 |"^#" E,4 A,,4 |[M:2/4] A,,4 | A,,4 |[M:4/4]"^#" D,8 |"^#" D,4 G,,4- | %16
 G,,2 G,2 C,2 F,2 |"^4" _E,2 C,2 D,2 D,2 |"^#" G,,8 | G,,8 | G,4 E,4 | F,8 | E,2 D,C, B,,4 | %23
 C,4 ^C,4 | D,8 | D,4 G,4- | G,2 E,2 F,2 G,2 | C,8 | B,,4 A,,4 |"^4""^#" D,4 E,2 E,2 |"^#" A,,8 | %31
 D,4 G,,4- | G,,2 G,2 C,2 F,2 | _E,2 C,2 D,2 D,2 |"^4""^#" G,,8 | G,,8 | G,4 E,4 | F,8 | %38
 E,2 D,C, B,,4 |"^4""^#" C,4 D,2 D,2 | G,,8 | G,,4 B,,4 | E,4 F,2 F,2 |"^#""^#""^6" E,8 | %44
 E,4 ^D,4 |"^#""^#""^#" E,4 E,2 A,,2 | A,2 ^F,2 G,2 A,2 |"^#" D,8 | ^C,4 D,4 | %49
"^4""^#""^#" E,2 E,2 A,,4 |[M:2/4]"^#" A,,4 |"^#" D,4 | G,,4- | G,,2 G,2 | %54
[M:4/4] C,2 F,2 _E,2 C,2 |"^4""^#" D,2 D,2 G,,4 | G,,4 G,,4 | G,4 E,4 | F,4 F,4 | E,2 D,C, B,,4 | %60
 C,4 ^C,4 | D,8 |"^#" D,4 G,,4 | G,,8 | C,8 | C,3 D, E,4 | E,4 F,2 F,2 |"^6""^#""^#" E,8 | A,,8 | %69
 A,,8 | ^G,,4 A,,4 | A,2 ^F,2 G,2 A,2 |"^#""^#" D,4 D,4- | D,4 ^C,4 |"^4""^#" D,4 E,2 E,2 | %75
"^#" A,,8 |"^#" D,4 G,,4- | G,,2 G,2 C,2 F,2 |"^4""^#" _E,2 C,2 D,2 D,2 | G,,8 | G,8 | G,4 E,4 | %82
 F,8 | E,2 D,C, B,,4 |"^4""^#" C,4 D,2 D,2 | G,,8 | G,,8 | G,,8 |[M:2/4] G,,4 | G,4 | %90
[M:4/4] F,4 E,4 | E,4 A,,4 |"^#" D,8 | D,4 G,,4- | G,,2 G,2 C,2 F,2 |"^4""^#" _E,2 C,2 D,2 D,2 | %96
 G,,8 |] %97

